X:1
T:The Two Sisters
M:6/8
L:1/8
K:C
 B^AB d2 B| G2 A B3| A2 B c3| B2 c d3| B^AB d2 B| G2 A B2 B|A-B c B2 A|\
 G3- G3|
